!!!!SEGMENT: pl-sa--11-a-i-11--006_anonim--passio-domini-nostri-orabat.krn
!!!cenid: 18xx:1328
!!!COM: Anonim
!!!COM-rismID: pe30004985
!!!CDT:
!!!CNT:
!!!OPR: Passio Domini Nostri
!!!OTL: Orabat
!!!OMV: 006
!!!PDT: 1815
!!!AGN: Sacred
!!!SMS-siglum: PL-SA
!!!SMS-shelfmark: 11/A I 11
!!!SMS-shelfwork: 001-006 M
!!!SMS-variant:
!!!SMS-altvar:
!!!NIFC-rismSourceID: 1001076834
!!!NIFC-rismChildID: 1001076834
!!!NIFC-islandoraID: none
!!!URL-pdf-islandora:
!!!URL-scan: https://bc.bdsandomierz.pl/dlibra/publication/1277/edition/1245/content @EN{Scan in the Sandomierz Diocese Digital Library} @PL{Skany w portalu Cyfrowa Biblioteka Diecezjalna w Sandomierzu}
!!!IIIF:
!!!ONB-nifc: UWAGA: części Pasji: 1. Pars I – Passio Domini nostri, 2. Pars I – Plankt – Witaj Jezu, 3. Pars II – Apprehendit, 4. Pars II – Tolle crucifige, 5. Pars II – Plankt – Oto przybity do krzyża, 6. Pars III – Orabat
!!!AIN: 1 organ 2 soprn 2 violn
!!!key: c
**kern	**dynam	**kern	**dynam	**kern	**dynam	**kern	**text	**kern	**text
*part5	*part5	*part4	*part4	*part3	*part3	*part2	*part2	*part1	*part1
*staff5	*	*staff4	*	*staff3	*	*staff2	*staff2	*staff1	*staff1
*I"Organo.	*	*I"Violino Secundo.	*	*I"Violino Primo.	*	*I"Canto 2do.	*	*I"Canto Primo.	*
*I'org	*	*I'vl 2	*	*I'vl 1	*	*I'S 2	*	*I'S 1	*
*Iorgan	*	*Ivioln	*	*Ivioln	*	*Isoprn	*	*Isoprn	*
*ICklav	*	*ICstr	*	*ICstr	*	*ICvox	*	*ICvox	*
*clefF4	*	*clefG2	*	*clefG2	*	*clefC1	*	*clefC1	*
*k[b-e-a-]	*	*k[b-e-a-]	*	*k[b-e-a-]	*	*k[b-e-a-]	*	*k[b-e-a-]	*
*c:	*	*c:	*	*c:	*	*c:	*	*c:	*
*M3/4	*	*M3/4	*	*M3/4	*	*M3/4	*	*M3/4	*
=1	=1	=1	=1	=1	=1	=1	=1	=1	=1
*2\right	*	*2\right	*	*2\right	*	*2\right	*	*2\right	*
!	!	!	!	!LO:TX:t=P:problem=mixed beam	!	!	!	!	!
!LO:TX:b:t=Orabat	!	!	!	!	!	!LO:TX:t=P:problem=kolejność bemoli&colon;b-, ee-, a-	!	!LO:TX:t=8	!
!LO:TX:t=Pars. iii.	!	!LO:TX:b:t=Orabat.	!	!LO:TX:b:t=Orabat	!	!LO:TX:t=8	!	!LO:TX:t=Pars. iii.	!
!LO:TX:t=P:problem=kolejność bemoli&colon;E-, B-, A-	!	!LO:TX:t=Pars. iii.	!	!LO:TX:t=Pars. iii.	!	!LO:TX:t=Pars. iii.	!	!LO:TX:t=P:problem=kolejność bemoli&colon;b-, ee-, a-	!
4C\	.	8r	.	8c/L	.	2.r	.	2.r	.
.	.	8c'/L	.	16cc\L	.	.	.	.	.
.	.	.	.	16bn\JJ	.	.	.	.	.
4E-\	.	8e-'/	.	16cc\LL	.	.	.	.	.
.	.	.	.	16dd\	.	.	.	.	.
.	.	8g'/	.	16ee-\	.	.	.	.	.
.	.	.	.	16dd\JJ	.	.	.	.	.
4C\	.	8e-'/	.	16ff\LL	.	.	.	.	.
.	.	.	.	16ee-\	.	.	.	.	.
.	.	8c'/J	.	16dd\	.	.	.	.	.
.	.	.	.	16cc\JJ	.	.	.	.	.
=2	=2	=2	=2	=2	=2	=2	=2	=2	=2
8r	.	8r	.	8cc\L	.	2.r	.	2.r	.
8GG/L	.	8Bn/L	.	8bn\J	.	.	.	.	.
8BBn/	.	8d/	.	4.b\	.	.	.	.	.
8D/	.	8g/	.	.	.	.	.	.	.
8BB/	.	8d/	.	.	.	.	.	.	.
8GG/J	.	8Bn/J	.	8g/	.	.	.	.	.
=3	=3	=3	=3	=3	=3	=3	=3	=3	=3
4GG/	.	8g/	.	8g/L	.	2.r	.	2.r	.
.	.	4g/	.	16bn/L	.	.	.	.	.
.	.	.	.	16dd/JJ	.	.	.	.	.
4r	.	.	.	8ff\L	.	.	.	.	.
.	.	4g/	.	16ee-\L	.	.	.	.	.
.	.	.	.	16dd\JJ	.	.	.	.	.
4r	.	.	.	8ee-\L	.	.	.	.	.
.	.	8g/	.	16dd\L	.	.	.	.	.
.	.	.	.	16cc\JJ	.	.	.	.	.
=4	=4	=4	=4	=4	=4	=4	=4	=4	=4
8r	.	8g/	.	16ee-\LL	.	2.r	.	2.r	.
.	.	.	.	16dd\	.	.	.	.	.
8G\L	.	4g/	.	16cc\	.	.	.	.	.
.	.	.	.	16ee-\JJ	.	.	.	.	.
8D\	.	.	.	8dd\L	.	.	.	.	.
8BBn\J	.	4g/	.	8bn\J	.	.	.	.	.
4GG/	.	.	.	4g/	.	.	.	.	.
.	.	8g/	.	.	.	.	.	.	.
=5	=5	=5	=5	=5	=5	=5	=5	=5	=5
4C/	.	(16ee-\LL	.	16gg\LL	.	2.r	.	2.r	.
.	.	16dd\	.	16ff\	.	.	.	.	.
.	.	16dd\	.	16ff\	.	.	.	.	.
.	.	16cc\JJ)	.	16ee-\JJ	.	.	.	.	.
8r	.	4.cc\	.	4.ee-\	.	.	.	.	.
8C/L	.	.	.	.	.	.	.	.	.
8E-/	.	.	.	.	.	.	.	.	.
8C/J	.	8ee-\	.	8gg\	.	.	.	.	.
=6	=6	=6	=6	=6	=6	=6	=6	=6	=6
4GG/	.	(16dd\LL	.	16ff\LL	.	2.r	.	2.r	.
.	.	16cc\	.	16ee-\	.	.	.	.	.
.	.	16cc\	.	16ee-\	.	.	.	.	.
.	.	16bn\JJ)	.	16dd\JJ	.	.	.	.	.
8r	.	4.b\	.	4.dd\	.	.	.	.	.
8GG/L	.	.	.	.	.	.	.	.	.
8BBn/	.	.	.	.	.	.	.	.	.
8GG/J	.	8dd\	.	8ff\	.	.	.	.	.
=7	=7	=7	=7	=7	=7	=7	=7	=7	=7
4C/	.	16g/LL	.	16ee-\LL	.	2.r	.	2.r	.
.	.	16f/J	.	16dd\J	.	.	.	.	.
.	.	8e-/J	.	8cc\J	.	.	.	.	.
4E-/	.	8ff'\L	.	8aa-\L	.	.	.	.	.
.	.	8ee-'\	.	8gg\	.	.	.	.	.
4F#X/	.	8dd'\	.	8ff\	.	.	.	.	.
.	.	8cc'\J	.	8ee-\J	.	.	.	.	.
=8	=8	=8	=8	=8	=8	=8	=8	=8	=8
!LO:TX:t=P:problem=mixed beam	!	!	!	!	!	!	!	!	!
8G\L	.	4cc\	.	4ee-\	.	2.r	.	2.r	.
8GG/J	.	.	.	.	.	.	.	.	.
8G\L	.	4bn\	.	4dd\	.	.	.	.	.
8Fn\	.	.	.	.	.	.	.	.	.
8E-\	.	4r	.	4r	.	.	.	.	.
8D\J	.	.	.	.	.	.	.	.	.
=9	=9	=9	=9	=9	=9	=9	=9	=9	=9
*	*	*tremolo	*	*	*	*	*	*	*
4C/	p	8e-/L	.	8g/L	pp	4e-/	O-	8g/	O-
.	.	8e-/	.	8cc/	.	.	.	8cc\	.
4r	.	8e-/	.	8cc/	.	8e-/L	-ra-	8cc\	-ra-
.	.	8e-/J	.	8cc/J	.	8e-/J	-bat	8cc\	-bat
4r	.	8e-/L	.	8cc\L	.	8e-/	au-	8cc\	au-
.	.	8cc/J	.	8ee-\J	.	8e-/	-tem	8ee-\	-tem
=10	=10	=10	=10	=10	=10	=10	=10	=10	=10
4r	.	8cc\L	.	8ee-\L	.	8cc\L	Je-	8ee-\L	Je-
.	.	8bn\J	.	8dd\J	.	8bn\J	.	8dd\J	.
4G\	.	2b\	.	2dd\	.	2bn\	-sus	2dd\	-sus
4GG/	.	.	.	.	.	.	.	.	.
=11	=11	=11	=11	=11	=11	=11	=11	=11	=11
!	!	!	!	!	!	!LO:TX:t=1	!	!	!
4GG/	.	8dd\L	.	8ff\L	.	2.r	.	8ff\	pro
.	.	8cc\J	.	8ee-\	.	.	.	8ee-\	Cru-
4r	.	8f/L	.	8dd\	.	.	.	8dd\	-ci-
.	.	8e-/J	.	8cc\J	.	.	.	8cc\	-fi-
!	!	!	!	!LO:LB:g=original	!	!	!	!	!
4r	.	8d/L	.	8bn\L	.	.	.	8bn\	-en-
.	.	16e-/L	.	16cc\L	.	.	.	16cc\	-ti-
.	.	16e-/JJ	.	16cc\JJ	.	.	.	16cc\	-bus
=12	=12	=12	=12	=12	=12	=12	=12	=12	=12
4G\	.	4g/	.	4gg\	.	4g/	di-	4gg\	di-
4GG;/	.	4G;/	.	4g;/	.	4g/	-cens	4g;\	-cens
4r	.	4r	.	4r	.	4r;	.	4r	.
!	!	!LO:LB:g=original	!	!	!	!	!	!	!
=13	=13	=13	=13	=13	=13	=13	=13	=13	=13
4GG/	.	4ee-'\	.	4gg\	.	4ee-\	a-	4gg\	A-
4r	.	4dd'\	.	4ff\	.	4dd\	-it	4ff\	-it
4r	.	4cc'\	.	4ee-\	.	4cc\	ad	4ee-\	ad
=14	=14	=14	=14	=14	=14	=14	=14	=14	=14
8r	.	4cc\	.	4ee-\	.	4cc\	e-	4ee-\	E-
8GG/L	.	.	.	.	.	.	.	.	.
8BBn/	.	2bn\	.	2dd\	.	2bn\	-um	2dd\	-um
8D/J	.	.	.	.	.	.	.	.	.
8BBn/L	.	.	.	.	.	.	.	.	.
8GG/J	.	.	.	.	.	.	.	.	.
!LO:LB:g=original	!	!	!	!	!	!	!	!	!
=15	=15	=15	=15	=15	=15	=15	=15	=15	=15
*	*	*Xtremolo	*	*	*	*	*	*	*
4GG/	.	8ee-'\L	.	8gg'\L	.	8ee-\	lat-	8gg\	lat-
.	.	8ee-'\	.	8gg'\	.	8ee-\	-ro	8gg\	-ro
!	!	!	!	!	!	!	!	!LO:LB:g=original	!
4r	.	8dd'\	.	8ff'\	.	8dd\	ad	8ff\	ad
.	.	8dd'\	.	8ff'\	.	8dd\	dex-	8ff\	dex-
4r	.	8cc'\	.	8ee-'\	.	8cc\	-te-	8ee-\	-te-
.	.	8cc'\J	.	8ee-'\J	.	8cc\	-ram	8ee-\	-ram
=16	=16	=16	=16	=16	=16	=16	=16	=16	=16
4F#X\	.	4cc\	.	4ee-\	.	4cc\	pen-	4ee-\	pen-
!	!	!	!	!	!	!	!	!	!LO:MO:mod=dens
4G\	.	4bn\	.	4dd;\	.	4bn;\	-dens.	4dd;\	-des
4GG;/	.	4r	.	4r	.	4r	.	4r	.
=17	=17	=17	=17	=17	=17	=17	=17	=17	=17
4E-\	.	8e-/L	f	8.b-\L	.	8.g\	Do-	8.b-\	Do-
.	.	8b-/	.	.	.	.	.	.	.
.	.	.	.	16b-\Jk	.	16g\	-mi-	16b-\	-mi-
4E-\	.	8g/	.	8b-\L	.	4g\	-ne	4b-\	-ne
.	.	8b-/	.	8bb-\	.	.	.	.	.
4r	.	8e-/	.	8gg\	.	4r	.	4r	.
.	.	8b-/J	.	8ee-\J	.	.	.	.	.
!	!	!	!	!	!	!LO:LB:g=original	!	!	!
=18	=18	=18	=18	=18	=18	=18	=18	=18	=18
!	!	!	!	!	!	!LO:SIC:v:s=8.f	!	!	!
4BB-/	.	8d/L	.	8.b-\L	.	8.g\	Do-	8.b-\	Do-
.	.	8b-/	.	.	.	.	.	.	.
!	!	!	!	!	!	!LO:SIC:v:s=16f	!	!	!
.	.	.	.	16b-\Jk	.	16g\	-mi-	16b-\	-mi-
!	!	!	!	!	!	!LO:SIC:v:s=8f	!	!	!
4BB-/	.	8f/	.	8b-\L	.	4g\	-ne	4b-\	-ne
.	.	8b-/	.	8aa-\	.	.	.	.	.
4r	.	8d/	.	8ff\	.	4r	.	4r	.
.	.	8b-/J	.	8dd\J	.	.	.	.	.
=19	=19	=19	=19	=19	=19	=19	=19	=19	=19
*tremolo	*	*	*	*	*	*	*	*	*
8BB-/L	.	4ee-\	.	4gg\	.	4ee-\	me-	4gg\	me-
8BB-/	.	.	.	.	.	.	.	.	.
8BB-/	.	4dd\	.	4ff\	.	4dd\	-men-	4ff\	-men-
8BB-/	.	.	.	.	.	.	.	.	.
8BB-/	.	4ee-\	.	4gg\	.	4ee-\	-to	4gg\	-to
8BB-/J	.	.	.	.	.	.	.	.	.
=20	=20	=20	=20	=20	=20	=20	=20	=20	=20
4BB-/	.	4ff\	.	4aa-\	.	4ff\	me-	4aa-\	me-
!	!	!LO:SIC:v:s=4ee-	!	!LO:TX:b:t=g.	!	!	!	!	!
4BB-;/	.	4dd;\	.	4gg;\	.	4ee-;\	-i	4gg;\	-i
4r	.	4r	.	4r	.	4r	.	4r	.
=21	=21	=21	=21	=21	=21	=21	=21	=21	=21
4E-\	.	4.ee-\	.	4.gg\	.	4.ee-\	Do-	4.gg\	Do-
4r	.	.	.	.	.	.	.	.	.
.	.	8dd\	.	8ff\	.	8dd\	-mi-	8ff\	-mi-
4r	.	8cc\L	.	8ee-\L	.	8cc\L	-ne	8ee-\	-ne
.	.	8bn\J	.	8dd\J	.	8bn\J	.	8dd\	.
=22	=22	=22	=22	=22	=22	=22	=22	=22	=22
8r	.	8f/L	.	(8ff\L	.	8g\	dum	8ff\	dum
8c\L	.	8e-/	.	8ee-\	.	8g\	ve-	8ee-\	ve-
!	!	!	!	!	!	!	!	!LO:LB:g=original	!
8G\	.	8d/	.	8dd\	.	4g\	-ne-	8dd\	-ne-
8E-\J	.	8e-/J	.	8ee-\J)	.	.	.	8ee-\	.
4C/	.	4c/	.	4cc\	.	4g\	-ris	4cc\	-ris
=23	=23	=23	=23	=23	=23	=23	=23	=23	=23
4GG/	.	4d/	.	4bn/	.	4d/	in	4bn\	in
4G\	.	4d/	.	4b/	.	4d/	Reg-	4b\	Reg-
4GG/	.	4f/	.	4dd\	.	4f/	-nu(m)	4dd\	-num
=24	=24	=24	=24	=24	=24	=24	=24	=24	=24
8r	.	4f/	.	4dd\	.	4f/	Tu-	4dd\	Tu-
8C\L	.	.	.	.	.	.	.	.	.
8E-\	.	2e-/	.	2cc\	.	2e-/	-um	2cc\	-um,
8G\	.	.	.	.	.	.	.	.	.
8E-\	.	.	.	.	.	.	.	.	.
8C\J	.	.	.	.	.	.	.	.	.
=25	=25	=25	=25	=25	=25	=25	=25	=25	=25
!	!	!	!	!	!	!LO:TX:t=ii.	!	!LO:TX:t=9	!
4C\	.	8c/ 8e-	.	8cc/L	f	2.r	.	2.r	.
.	.	4c/ 4e-	.	8g/	.	.	.	.	.
4E-\	.	.	.	8ee-/	.	.	.	.	.
.	.	4c/ 4e-	.	8cc/	.	.	.	.	.
4C\	.	.	.	8gg/	.	.	.	.	.
.	.	8c/ 8e-	.	8cc/J	.	.	.	.	.
!	!	!	!	!LO:LB:g=original	!	!	!	!	!
=26	=26	=26	=26	=26	=26	=26	=26	=26	=26
4GG/	.	8Bn/ 8d	.	8bn/L	.	2.r	.	2.r	.
.	.	4B/ 4d	.	8g/	.	.	.	.	.
4G\	.	.	.	8dd/	.	.	.	.	.
.	.	4B/ 4d	.	8b/	.	.	.	.	.
4GG/	.	.	.	8ff/	.	.	.	.	.
.	.	8B/ 8d	.	8dd/J	.	.	.	.	.
=27	=27	=27	=27	=27	=27	=27	=27	=27	=27
!	!	!LO:TX:t=P:problem=mixed beam	!	!	!	!	!	!	!
8r	.	8e-/L	.	8cc\L	.	2.r	.	2.r	.
8C/	.	8ee-\J	.	8gg\J	.	.	.	.	.
8C/L	.	4ee-\	.	4gg\	.	.	.	.	.
8C/	.	.	.	.	.	.	.	.	.
8C/	.	8dd\L	.	8ff\L	.	.	.	.	.
8C/J	.	8cc\J	.	8ee-\J	.	.	.	.	.
!	!	!LO:LB:g=original	!	!	!	!	!	!	!
=28	=28	=28	=28	=28	=28	=28	=28	=28	=28
8r	.	8bn\L	.	8dd\L	.	2.r	.	2.r	.
8GG/	.	8dd\J	.	8ff\J	.	.	.	.	.
8GG/L	.	4dd\	.	4ff\	.	.	.	.	.
8GG/	.	.	.	.	.	.	.	.	.
8GG/	.	8cc\L	.	8ee-\L	.	.	.	.	.
8GG/J	.	8b\J	.	8dd\J	.	.	.	.	.
=29	=29	=29	=29	=29	=29	=29	=29	=29	=29
4C\	.	(16e-/LL	.	(16cc\LL	.	2.r	.	2.r	.
.	.	16f/	.	16dd\	.	.	.	.	.
.	.	16e-/	.	16cc\	.	.	.	.	.
.	.	16d/JJ)	.	16bn\JJ)	.	.	.	.	.
4E-\	.	16e-/LL	.	(16cc\LL	.	.	.	.	.
.	.	16bn/	.	16dd\	.	.	.	.	.
.	.	16cc/	.	16ee-\	.	.	.	.	.
.	.	16dd/JJ	.	16ff\JJ)	.	.	.	.	.
4C\	.	8ee-\L	.	8gg'\L	.	.	.	.	.
.	.	8ee-\J	.	8gg'\J	.	.	.	.	.
=30	=30	=30	=30	=30	=30	=30	=30	=30	=30
4G\	.	8ee-\	.	8gg\	.	2.r	.	2.r	.
.	.	4dd\	.	4ff\	.	.	.	.	.
8r	.	.	.	.	.	.	.	.	.
8G\	.	4cc\	.	4ee-\	.	.	.	.	.
4GG/	.	.	.	.	.	.	.	.	.
.	.	8bn\	.	8dd\	.	.	.	.	.
=31	=31	=31	=31	=31	=31	=31	=31	=31	=31
4c\	.	8cc\L	.	8ee-\L	.	2.r	.	2.r	.
.	.	8ee-\J	.	8gg\J	.	.	.	.	.
4Bn\	.	4dd\	.	4ff\	.	.	.	.	.
4G\	.	8cc\L	.	8ee-\L	.	.	.	.	.
.	.	8bn\J	.	8dd\J	.	.	.	.	.
=32	=32	=32	=32	=32	=32	=32	=32	=32	=32
4c\	.	8cc\L	.	8ee-\L	.	2.r	.	2.r	.
.	.	8ee-\J	.	8gg\J	.	.	.	.	.
4Bn\	.	4dd\	.	4ff\	.	.	.	.	.
4G\	.	8cc\L	.	8ee-\L	.	.	.	.	.
.	.	8bn\J	.	8dd\J	.	.	.	.	.
=33	=33	=33	=33	=33	=33	=33	=33	=33	=33
4G\	f	4g/	.	4bn/	.	2.r	.	2.r	.
8c\L	.	8a-/L	.	8cc\L	.	.	.	.	.
8B-X\	.	8g/	.	8b-X\	.	.	.	.	.
8A-\	.	8f/	.	8a-\	.	.	.	.	.
8G\J	.	8e-/J	.	8g\J	.	.	.	.	.
!LO:LB:g=original	!	!	!	!	!	!	!	!	!
=34	=34	=34	=34	=34	=34	=34	=34	=34	=34
!	!	!	!	!	!	!	!	!LO:TX:t=P:problem=2 takty zapisane za pomocą odnośnika "Vi-de re-tro" i znaku #	!
4E-\	pp	8g/L	.	8ee-\L	pp	2.r	.	8ee-\	a-
.	.	8g/J	.	8ee-\J	.	.	.	8ee-\	-it
4E-\	.	4g/	.	4ee-\	.	.	.	4ee-\	il-
4E-\	.	4g/	.	4b-\	.	.	.	4b-\	-li
=35	=35	=35	=35	=35	=35	=35	=35	=35	=35
4E-\	.	4g/	.	4g/	.	2.r	.	4g/	Je-
4E-\	.	4G/	.	4e-/	.	.	.	4e-/	-sus
4E-\	.	4r	.	4r	.	.	.	4r	.
!	!	!	!	!	!	!	!	!LO:LB:g=original	!
=36	=36	=36	=36	=36	=36	=36	=36	=36	=36
4E-\	.	8g/L	pp	8b-/L	.	8g\	Di-	8b-\	Di-
.	.	8g/J	.	8b-/J	.	8g\	-xit	8b-\	-xit
4r	.	4g/	.	4b-/	.	4g\	au-	4b-\	au-
4r	.	4g/	.	4b-/	.	4g\	-tem	4b-\	-tem
=37	=37	=37	=37	=37	=37	=37	=37	=37	=37
!LO:TX:t=f.	!	!	!	!	!	!	!	!	!
4F\	.	8a-/L	.	8cc\L	.	8a-\	Mat-	8cc\	Mat-
.	.	8a-/J	.	8cc\J	.	8a-\	-ris	8cc\	-ris
4r	.	4a-/	.	4cc\	.	4a-\	Su-	4cc\	Su-
4r	.	4a-/	.	4cc\	.	4a-\	-ae	4cc\	-ae
!	!	!	!	!LO:LB:g=original	!	!LO:LB:g=original	!	!	!
=38	=38	=38	=38	=38	=38	=38	=38	=38	=38
4D\	.	4f/	.	4dd\	.	4f/	de-	4dd\	de-
4r	.	4a-/	.	4ff\	.	4a-/	-in-	4ff\	-in-
4r	.	4f/	.	4dd\	.	4f/	-de.	4dd\	-de
=39	=39	=39	=39	=39	=39	=39	=39	=39	=39
!	!	!	!	!	!	!	!	!LO:TX:t=2	!
8E-\L	.	8cc'\L	.	8ee-'\L	.	8ee-\	Di-	2.r	.
8E-\	.	8b-'\	.	8dd'\	.	8dd\	-xit	.	.
8E-\	.	8a-'\	.	8cc'\	.	8cc\	Dis-	.	.
8E-\	.	8g'\	.	8b-'\	.	8b-\	-ci-	.	.
8E-\	.	8f'\	.	8a-'\	.	8a-\	-pu-	.	.
8E-\J	.	8e-'\J	.	8g'\J	.	8g\	-lo	.	.
=40	=40	=40	=40	=40	=40	=40	=40	=40	=40
4BB-/	.	4e-/	.	4g/	.	4g/	Su-	2.r	.
4BB-/	.	4d/	.	4f/	.	4f/	-o	.	.
4r	.	4r	.	4r	.	4r	.	.	.
=41	=41	=41	=41	=41	=41	=41	=41	=41	=41
4E-\	.	4g/	.	4b-/	.	4g/	et	4b-\	et
*	*	*tremolo	*	*tremolo	*	*	*	*	*
4r	.	8g/L	.	8b-/L	.	8g/	cir-	8b-\	cir-
.	.	8g/	.	8b-/	.	8g/	-ca	8b-\	-ca
4r	.	8g/	.	8b-/	.	8g/	ho-	8b-\	ho-
.	.	8g/J	.	8b-/J	.	8g/	-ram	8b-\	-ram
!	!	!LO:LB:g=original	!	!	!	!	!	!	!
=42	=42	=42	=42	=42	=42	=42	=42	=42	=42
4E-\	.	4g/	.	4b-\	.	4g/	no-	4b-\	no-
4G\	.	2g/	.	2ee-\	.	2g/	-nam	2ee-\	-nam
4E-\	.	.	.	.	.	.	.	.	.
!	!	!	!	!	!	!	!	!LO:LB:g=original	!
=43	=43	=43	=43	=43	=43	=43	=43	=43	=43
4D\	.	4f/	.	4a-/	.	4f/	et	4a-\	et
4r	.	8f/L	.	8a-/L	.	8f/	cir-	8a-\	cir-
.	.	8f/	.	8a-/	.	8f/	-ca	8a-\	-ca
4r	.	8f/	.	8a-/	.	8f/	ho-	8a-\	ho-
.	.	8f/J	.	8a-/J	.	8f/	-ram	8a-\	-ram
*	*	*	*	*Xtremolo	*	*	*	*	*
=44	=44	=44	=44	=44	=44	=44	=44	=44	=44
4D\	.	4f/	.	4a-/	.	4f/	no-	4a-\	no-
4F\	.	2a-/	.	2ff\	.	2a-\	-nam	2ff\	-nam
4D\	.	.	.	.	.	.	.	.	.
=45	=45	=45	=45	=45	=45	=45	=45	=45	=45
4B-\	.	4ee-\	.	4gg\	.	4ee-\	cla-	4gg\	cla-
4B-\	.	4ff\	.	4aa-\	.	4ff\	-ma-	4aa-\	-ma-
!	!	!	!	!	!	!	!	!	!LO:MO:mod=bat
4B-\	.	4ee-\	.	4gg\	.	4ee-\	-bat	4gg\	-bant
=46	=46	=46	=46	=46	=46	=46	=46	=46	=46
4B-\	.	4ee-\	.	8gg\L	.	8ee-\L	Je-	8gg\L	Je-
.	.	.	.	8ff\J	.	8dd\J	.	8ff\J	.
4BB-/	.	4dd\	.	2ff\	.	2dd\	-sus	2ff\	-sus
4BB-/	.	4r	.	.	.	.	.	.	.
!	!	!	!	!	!	!LO:LB:g=original	!	!	!
=47	=47	=47	=47	=47	=47	=47	=47	=47	=47
*	*	*Xtremolo	*	*	*	*	*	*	*
4BB-/	.	8ee-\L	.	8gg\L	.	8ee-\	vo-	8gg\	vo-
.	.	8ee-\J	.	8gg\J	.	8ee-\	-ce	8gg\	-ce
4B-\	.	4ff\	.	4aa-\	.	4ff\	mag-	4aa-\	mag-
4B-\	.	4ee-\	.	4gg\	.	4ee-\	-na	4gg\	-na
=48	=48	=48	=48	=48	=48	=48	=48	=48	=48
4B-\	.	4ee-\	.	4gg\	.	4ee-\	di-	4gg\	di-
8B-\L	.	4dd\	.	4ff\	.	4dd\	-cens	4ff\	-cens
8A-\	.	.	.	.	.	.	.	.	.
8G\	.	4r	.	4r	.	4r	.	4r	.
8F\J	.	.	.	.	.	.	.	.	.
=49	=49	=49	=49	=49	=49	=49	=49	=49	=49
4E-\	.	4g/	.	4ee-\	.	4g/	hoc	4ee-\	hoc
4E-\	.	4g/	.	4b-\	.	4g/	eſt	4b-\	eſt
4r	.	8r	.	8r	.	8r	.	8r	.
.	.	8e-/	.	8g/	.	8e-/	cla-	8g\	cla-
=50	=50	=50	=50	=50	=50	=50	=50	=50	=50
4E-\	.	4e-/	.	4g/	.	4e-/	-ma-	4g/	-ma-
4E-\	.	4G/	.	4e-/	.	4e-/	-bant,	4e-/	-bant.
4r	.	4r	.	4r	.	4r	.	4r	.
=51	=51	=51	=51	=51	=51	=51	=51	=51	=51
4E-\	.	8g/L	.	(8b-\L	.	8g\	au-	8b-\	au-
.	.	8a-/	.	8cc\	.	8a-\	-tem	8cc\	-tem
4r	.	(8g/	.	8b-\	.	8g\	Ju-	8b-\	Ju-
.	.	8a-/J)	.	8cc\J)	.	8a-\	-de-	8cc\	-de-
!	!	!	!	!	!	!	!	!LO:LB:g=original	!
4r	.	4g/	.	4b-\	.	4g\	-i	4b-\	-i.
=52	=52	=52	=52	=52	=52	=52	=52	=52	=52
4E-\	.	4g/	.	4b-/	.	4g/	di-	4b-\	di-
4E-\	.	4e-/	.	4g/	.	4e-/	-cen-	4g\	-cen-
4E-\	.	4g/	.	4b-/	.	4g/	-tes	4b-\	-tes
!	!	!	!	!LO:LB:g=original	!	!	!	!	!
=53	=53	=53	=53	=53	=53	=53	=53	=53	=53
8r	.	8f/L	.	8a-/L	.	8f/L	E-	8a-\L	E-
!	!	!	!	!	!	!	!	!LO:TX:t=f.	!
8BB-/L	.	8d/J	.	8f/J	.	8e-/J	-li-	8f\J	-li-
8C/	.	2e-/	.	2g/	.	2e-/	-am	2g/	-am
8D/J	.	.	.	.	.	.	.	.	.
!LO:TX:t=P:problem=mixed beam	!	!	!	!	!	!	!	!	!
8E-/L	.	.	.	.	.	.	.	.	.
8EE-/J	.	.	.	.	.	.	.	.	.
!LO:LB:g=original	!	!	!	!	!	!	!	!	!
=54	=54	=54	=54	=54	=54	=54	=54	=54	=54
4E-\	.	8g/L	.	8b-/L	.	8g\	E-	8b-\	E-
.	.	8g/J	.	8b-/J	.	8g\	-li-	8b-\	-li-
4E-\	.	4g/	.	4b-/	.	4g\	-am	4b-\	-am
4r	.	8g/L	.	8b-/L	.	8g\	Vo-	8b-\	Vo-
.	.	8f/J	.	8a-/J	.	8f\	-cat	8a-\	-cat
!	!	!	!	!	!	!LO:LB:g=original	!	!	!
=55	=55	=55	=55	=55	=55	=55	=55	=55	=55
4BB-/	.	4g/	.	4b-\	.	4g\	i-	4b-\	i-
4BB-/	.	4a-/	.	4cc\	.	4a-\	.	4cc\	.
4BB-/	.	4f/	.	4dd\	.	4f\	-ste	4dd\	-ste
=56	=56	=56	=56	=56	=56	=56	=56	=56	=56
8r	.	8a-/L	.	8ff\L	.	8a-\L	Si-	8ff\L	Si-
8E-\L	.	8g/J	.	8ee-\J	.	8g\J	-ni-	8ee-\J	-ni-
8G\	.	2g/	.	2ee-\	.	2g/	-te	2ee-\	-te
8B-\J	.	.	.	.	.	.	.	.	.
8G\L	.	.	.	.	.	.	.	.	.
8E-\J	.	.	.	.	.	.	.	.	.
=57	=57	=57	=57	=57	=57	=57	=57	=57	=57
4Bn\	.	8dd\L	.	8ff\L	.	8a-\	Vi-	8ff\	Vi-
.	.	8dd\J	.	8ff\J	.	8a-\	-de-	8ff\	-de-
4B\	.	4dd\	.	4ff\	.	4a-\	-a-	4ff\	-a-
4B\	.	4dd\	.	4ff\	.	4a-\	-mus	4ff\	-mus
!	!	!LO:LB:g=original	!	!	!	!	!	!	!
=58	=58	=58	=58	=58	=58	=58	=58	=58	=58
4c\	.	(8ee-\L	.	(8gg\L	.	8b-\L	an	8gg\L	an
.	.	8dd\	.	8ff\	.	8a-\J	ve-	8ff\J	ve-
4Bn\	.	8dd\	.	8ff\	.	8a-\L	-ni-	8ff\L	-ni-
.	.	8cc\J)	.	8ee-\J)	.	8g\J	-at	8ee-\J	-at.
4G\	.	4cc\	.	4ee-\	.	4g\	E-	4ee-\	E-
=59	=59	=59	=59	=59	=59	=59	=59	=59	=59
4G\	.	8f/L	.	8dd\L	.	8f/	-li-	8dd\L	-li-
.	.	8f/J	.	8dd\J	.	8f/	-as	8dd\J	-as
4G\	.	4f/	.	4dd\	.	4f/	li-	4dd\	li-
4GG/	.	4a-/	.	8dd\L	.	8f/L	-be-	8dd\L	-be-
.	.	.	.	8ff\J	.	8a-/J	-rans	8ff\J	-rans
!	!	!	!	!	!	!	!	!LO:LB:g=original	!
=60	=60	=60	=60	=60	=60	=60	=60	=60	=60
4GG/	.	8a-/L	.	8ff\L	.	8a-\L	e-	8ff\L	e-
.	.	8g/J	.	8ee-\J	.	8g\J	.	8ee-\J	.
8C/L	.	2g/	.	2ee-\	.	2g\	-um	2ee-\	-um.
8E-/	.	.	.	.	.	.	.	.	.
8G/	.	.	.	.	.	.	.	.	.
8E-/J	.	.	.	.	.	.	.	.	.
=61	=61	=61	=61	=61	=61	=61	=61	=61	=61
4C/	.	4.e-/	.	4.cc\	.	4.e-/	Di-	4.cc\	Di-
4E-/	.	.	.	.	.	.	.	.	.
.	.	8g/	.	8ee-\	.	8g/	-xit	8ee-\	-xit
4C/	.	8f/L	.	8dd\L	.	8f/	er-	8dd\	er-
.	.	8e-/J	.	8cc\J	.	8e-/	-go	8cc\	-go
=62	=62	=62	=62	=62	=62	=62	=62	=62	=62
4G\	.	4e-/	.	4cc\	.	4e-/	Je-	4cc\	Je-
2GG;/	.	2d;/	.	2bn;\	.	2d;/	-sus	2bn;\	-sus
!	!	!	!	!	!	!LO:LB:g=original	!	!	!
=63||	=63||	=63||	=63||	=63||	=63||	=63||	=63||	=63||	=63||
*k[b-e-a-]	*	*k[b-e-a-]	*	*k[b-e-a-]	*	*k[b-e-a-]	*	*k[b-e-a-]	*
*M2/4	*	*M2/4	*	*M2/4	*	*M2/4	*	*M2/4	*
!LO:TX:b:t=Sitio	!	!	!	!	!	!	!	!LO:TX:t=5.	!
!LO:TX:t=P:problem=kolejność bemoli&colon;E-, A-, BB-	!	!LO:TX:b:t=Sitio	!	!LO:TX:b:t=Sitio	!	!LO:TX:t=P:problem=kolejność bemoli&colon;b-, ee-, a-	!	!LO:TX:t=P:problem=kolejność bemoli&colon;b-, ee-, a-	!
4E-\	.	8.g/L	.	8.ee-\L	.	8.ee-\	Si-	2r	.
.	.	16g/Jk	.	16b-\Jk	.	16b-\	-ti-	.	.
4r	.	4g/	.	4b-\	.	4b-\	-o	.	.
=64	=64	=64	=64	=64	=64	=64	=64	=64	=64
4E-\	.	8.a-/L	.	8.cc\L	.	8.cc\	Si-	2r	.
.	.	16g/Jk	.	16b-\Jk	.	16b-\	-ti-	.	.
4r	.	4g/	.	4b-\	.	4b-\	-o	.	.
=65	=65	=65	=65	=65	=65	=65	=65	=65	=65
8E-\L	.	8g/L	.	8b-/L	.	8b-\	Et	2r	.
8E-\	.	8e-/	.	8g/	.	8g\	de-	.	.
8E-\	.	8f/	.	8a-/	.	8a-\	-de-	.	.
8E-\J	.	8g/J	.	8b-/J	.	8b-\	-runt	.	.
=66	=66	=66	=66	=66	=66	=66	=66	=66	=66
8E-\L	.	8a-/L	.	8cc/L	.	8cc\	e-	2r	.
8E-\	.	8g/	.	8b-/	.	8b-\	.	.	.
8E-\	.	8f/	.	8a-/	.	8a-\	-i	.	.
8E-\J	.	8e-/J	.	8g/J	.	8g\	a-	.	.
=67	=67	=67	=67	=67	=67	=67	=67	=67	=67
8BB-/L	.	4e-/	.	4g/	.	4g/	-ce-	2r	.
8C/	.	.	.	.	.	.	.	.	.
8D/	.	4d/	.	4f/	.	4f/	-tum,	.	.
8BB-/J	.	.	.	.	.	.	.	.	.
!	!	!	!	!LO:LB:g=original	!	!	!	!	!
=68	=68	=68	=68	=68	=68	=68	=68	=68	=68
8F\L	.	4c/	.	4an/	.	4c/	cum	4an\	Cum
8G\	.	.	.	.	.	.	.	.	.
!	!	!	!	!	!	!	!	!	!LO:MO:mod=fel
8An\	.	8c/L	.	8a/L	.	8c/	fel-	8a\	fe-
8F\J	.	8c/J	.	8a/J	.	8c/	-le	8a\	-le
=69	=69	=69	=69	=69	=69	=69	=69	=69	=69
!LO:TX:t=P:problem=mixed beam	!	!	!	!	!	!	!	!	!
8B-\L	.	4d/	.	4b-\	.	4d/	mix-	4b-\	mix-
8BB-/	.	.	.	.	.	.	.	.	.
8D/	.	4d/	.	4b-\	.	4d/	-tum.	4b-\	-tum
8BB-/J	.	.	.	.	.	.	.	.	.
=70	=70	=70	=70	=70	=70	=70	=70	=70	=70
8r	.	4an/	.	4cc\	.	4an\	Cum	4cc\	cum
*Xtremolo	*	*	*	*	*	*	*	*	*
8F\L	.	.	.	.	.	.	.	.	.
!	!	!	!	!	!	!	!	!	!LO:MO:mod=fel
8An\	.	8a/L	.	8cc\L	.	8a\	fel-	8cc\	fe-
8F\J	.	8a/J	.	8cc\J	.	8a\	-le	8cc\	-le
=71	=71	=71	=71	=71	=71	=71	=71	=71	=71
8B-'\L	.	4b-\	.	4dd\	.	4b-\	mix-	4dd\	mix-
8F'\	.	.	.	.	.	.	.	.	.
8D'\	.	4b-\	.	4dd\	.	4b-\	-tum	4dd\	-tum
8BB-'\J	.	.	.	.	.	.	.	.	.
!	!	!	!	!	!	!LO:LB:g=original	!	!	!
=72	=72	=72	=72	=72	=72	=72	=72	=72	=72
*tremolo	*	*	*	*	*	*	*	*	*
8BB-/L	.	8dd'\L	.	8ff\L	.	8dd\	Cum	8ff\	Cum
8BB-/	.	8cc'\	.	8ee-\	.	8cc\	gus-	8ee-\	gus-
!	!	!	!	!	!	!	!LO:MO:mod=tas	!	!LO:MO:mod=tas
8BB-/	.	8b-'\	.	8dd\	.	8b-\	-ta-	8dd\	-ta-
8BB-/J	.	8an'\J	.	8cc\J	.	8f\	-set	8cc\	-set
!LO:LB:g=original	!	!	!	!	!	!	!	!	!
=73	=73	=73	=73	=73	=73	=73	=73	=73	=73
8BB-/L	.	8b-\L	.	8dd\L	.	8b-\	no-	8dd\	no-
8BB-/	.	8cc\J	.	8ee-\J	.	8cc\	-lu-	8ee-\	-lu-
8BB-/	.	4dd\	.	4ff\	.	4dd\	-it	4ff\	-it
8BB-/J	.	.	.	.	.	.	.	.	.
!	!	!	!	!	!	!	!	!LO:LB:g=original	!
=74	=74	=74	=74	=74	=74	=74	=74	=74	=74
4BB-/	.	4dd\	.	4ff\	.	4dd\	bi-	4ff\	bi-
4r	.	8cc\L	.	8ee-\L	.	8cc\	-be-	8ee-\	-be-
.	.	8cc\J	.	8ee-\J	.	8cc\	-re	8ee-\	-re
!	!	!LO:LB:g=original	!	!	!	!	!	!	!
=75	=75	=75	=75	=75	=75	=75	=75	=75	=75
8r	.	8b-\L	.	8dd\L	.	8b-\	et	8dd\	et
8F\	.	8b-\J	.	8dd\J	.	8b-\	di-	8dd\	di-
4FF;/	.	4an/	.	4cc;\	.	4an;\	-xit	4cc;\	-xit
=76||	=76||	=76||	=76||	=76||	=76||	=76||	=76||	=76||	=76||
*k[b-e-a-]	*	*k[b-e-a-]	*	*k[b-e-]	*	*k[b-e-a-]	*	*k[b-e-a-]	*
*M3/4	*	*M3/4	*	*M3/4	*	*M3/4	*	*M3/4	*
!	!	!LO:TX:t=P:problem=przy kluczu skreślony bemol dd-	!	!LO:TX:t=P:problem=przy kluczu skreślony bemol dd-	!	!	!	!	!
!LO:TX:t=P:problem=kolejność bemoli&colon;E-, A-, BB-	!	!LO:TX:b:t=et inclinato	!	!LO:TX:b:t=Et inclinato	!	!	!	!	!
!LO:TX:b:t=Et in clinato	!	!LO:TX:t=P:problem=4 takty skreślone	!	!LO:TX:t=P:problem=4 takty skreślone	!	!LO:TX:t=P:problem=kolejność bemoli&colon;b-, ee-, a-	!	!LO:TX:t=P:problem=kolejność bemoli&colon;b-, ee-, a-	!
4C/	.	4e-/	.	4cc\	.	4e-/	Et	4cc\	Et
4E-/	.	4e-/	.	4cc\	.	4e-/	in-	4cc\	in-
4C/	.	4g/	.	4ee-\	.	4cc\	-cli-	4ee-\	-cli-
=77	=77	=77	=77	=77	=77	=77	=77	=77	=77
4G\	.	4g/	.	4ee-\	.	4cc\	-na-	4ee-\	-na-
4D\	.	2f/	.	2dd\	.	2bn\	-to	2dd\	-to
4GG/	.	.	.	.	.	.	.	.	.
=78	=78	=78	=78	=78	=78	=78	=78	=78	=78
4GG/	.	4d/	.	4bn/	.	4d/	et	4bn\	et
4BBn/	.	4d/	.	4b/	.	4d/	in-	4b\	in-
4GG/	.	4f/	.	4dd/	.	4f/	-cli-	4dd\	-cli-
=79	=79	=79	=79	=79	=79	=79	=79	=79	=79
8r	.	4f/	.	4dd\	.	4f/	-na-	4dd\	-na-
8C\L	.	.	.	.	.	.	.	.	.
8E-\	.	2e-/	.	2cc\	.	2e-/	-to	2cc\	-to
8G\J	.	.	.	.	.	.	.	.	.
!LO:TX:t=P:problem=mixed beam	!	!	!	!	!	!	!	!	!
8c\L	.	.	.	.	.	.	.	.	.
8C/J	.	.	.	.	.	.	.	.	.
!	!	!	!	!	!	!LO:LB:g=original	!	!	!
=80	=80	=80	=80	=80	=80	=80	=80	=80	=80
4C/	.	4ee-'\	.	4gg'\	.	4ee-\	Ca-	4gg\	Ca-
4r	.	4dd'\	.	4ff'\	.	4dd\	-pi-	4ff\	-pi-
4r	.	4cc'\	.	4ee-'\	.	4cc\	-te	4ee-\	-te
=81	=81	=81	=81	=81	=81	=81	=81	=81	=81
4G\	.	4dd'\	.	4ff'\	.	4dd\	e-	4ff\	e-
4r	.	4cc'\	.	4ee-'\	.	4cc\	-mi-	4ee-\	-mi-
4r	.	4bn'\	.	4dd'\	.	4bn\	-sit	4dd\	-sit
=82	=82	=82	=82	=82	=82	=82	=82	=82	=82
8r	.	8cc\L	.	8ee-\L	.	8cc\	Spi-	8ee-\	Spi-
8C/L	.	8cc\J	.	8ee-\J	.	8cc\	-ri-	8ee-\	-ri-
8E-/	.	2bn\	.	2dd;\	.	2bn;\	-tum	2dd;\	-tum
8F#X/J	.	.	.	.	.	.	.	.	.
!LO:TX:t=P:problem=mixed beam	!	!	!	!	!	!	!	!	!
8G\L	.	.	.	.	.	.	.	.	.
8GG;/J	.	.	.	.	.	.	.	.	.
!	!	!LO:LB:g=original	!	!	!	!	!	!LO:PB:g=original	!
=83||	=83||	=83||	=83||	=83||	=83||	=83||	=83||	=83||	=83||
*k[b-e-a-d-]	*	*k[b-e-a-d-]	*	*k[b-e-a-d-]	*	*k[b-e-a-d-]	*	*k[b-e-a-d-]	*
*M3/4	*	*M3/4	*	*M3/4	*	*M3/4	*	*M3/4	*
*	*	*tremolo	*	*	*	*	*	*	*
!	!	!	!	!	!	!	!	!LO:TX:t=P:problem=kolejność bemoli&colon;b-, ee-, a-, dd-	!
!	!	!	!	!	!	!	!	!LO:TX:t=Tardiſsime	!
!LO:TX:b:t=Qui paſsus	!	!LO:TX:b:t=Qui paſsus	!	!LO:TX:t=P:problem=kolejność bemoli&colon;b-, ee-, dd-, a-	!	!	!	!	!
!LO:TX:t=P:problem=kolejność bemoli&colon;E-, A-, D-, B-	!	!	!	!LO:TX:b:t=Qui paſsus	!	!LO:TX:t=P:problem=kolejność bemoli&colon;b-, ee-, a-, dd-	!	!	!
4AA-/	.	8c/L	.	8e-/L	.	4c/	Qui	8e-/L	Qui
.	.	8c/	.	8a-/	.	.	.	8a-/J	.
4C/	.	8c/	.	8a-/	.	8c/	paſ-	8a-/	paſ-
.	.	8c/J	.	8a-/J	.	8c/	-sus	8a-/	-sus
4AA-/	.	8c/L	.	8a-/L	.	8c/	eſt	8a-/	eſt
.	.	8a-/J	.	8cc/J	.	8a-\	pro	8cc/	pro
=84	=84	=84	=84	=84	=84	=84	=84	=84	=84
8r	.	8a-/L	.	8cc\L	.	8a-\L	no-	8cc\L	no-
8E-\L	.	8g/J	.	8b-\J	.	8g\J	.	8b-\J	.
8G\	.	2g/	.	2b-/	.	2g\	-bis	2b-\	-bis
8B-\	.	.	.	.	.	.	.	.	.
8G\	.	.	.	.	.	.	.	.	.
8E-\J	.	.	.	.	.	.	.	.	.
!	!	!	!	!LO:LB:g=original	!	!	!	!	!
=85	=85	=85	=85	=85	=85	=85	=85	=85	=85
4E-\	.	8e-/L	.	8e-/L	.	8e-/	Qui	8e-/	Qui
.	.	8g/J	.	8b-/	.	8g/	paſ-	8b-\	.
4G\	.	8g/L	.	8b-/	.	8g/	-sus	8b-\	paſ-
.	.	8g/	.	8b-/J	.	8g/	eſt	8b-\	-sus
4E-\	.	8g/	.	8b-\L	.	8g\L	pro	8b-\	eſt
.	.	8g/J	.	8dd-\J	.	8b-\J	.	8dd-\	pro
*	*	*Xtremolo	*	*	*	*	*	*	*
=86	=86	=86	=86	=86	=86	=86	=86	=86	=86
8A-\L	.	8b-/L	.	8dd-\L	.	8b-\L	no-	8dd-\L	no-
8E-\	.	8a-/J	.	8cc\J	.	8a-\J	.	8cc\J	.
8C\	.	2a-/	.	2cc\	.	2a-\	-bis	2cc\	-bis
8E-\	.	.	.	.	.	.	.	.	.
8C\	.	.	.	.	.	.	.	.	.
8AA-\J	.	.	.	.	.	.	.	.	.
!LO:LB:g=original	!	!	!	!	!	!LO:PB:g=original	!	!	!
=87	=87	=87	=87	=87	=87	=87	=87	=87	=87
!LO:TX:t=P:problem=mixed beam	!	!	!	!	!	!	!	!	!
8AA-/L	.	4.cc\	.	4.ee-\	.	4.cc\	Je-	4.ee-\	Je-
8A-\J	.	.	.	.	.	.	.	.	.
8A-/L	.	.	.	.	.	.	.	.	.
8A-\	.	8b-\	.	8dd-\	.	8b-\	-su	8dd-\	-su
8A-/	.	8a-\L	.	8cc\L	.	8a-\	chris-	8cc\	chris-
8A-\J	.	8dd-\J	.	8ff\J	.	8dd-\	-te	8ff\	-te
=88	=88	=88	=88	=88	=88	=88	=88	=88	=88
!LO:TX:t=P:problem=mixed beam	!	!	!	!	!	!	!	!	!
8AA-/L	.	4.cc\	.	4.ee-\	.	4.cc\	Je-	4.ee-\	Je-
8A-\J	.	.	.	.	.	.	.	.	.
8A-/L	.	.	.	.	.	.	.	.	.
8A-\	.	8b-\	.	8dd-\	.	8b-\	-su	8dd-\	-su
8A-/	.	8a-\L	.	8cc\L	.	8a-\	chris-	8cc\	chris-
8A-\J	.	8dd-\J	.	8ff\J	.	8dd-\	-te	8ff\	-te
*Xtremolo	*	*	*	*	*	*	*	*	*
!	!	!	!	!	!	!	!	!LO:LB:g=original	!
=89	=89	=89	=89	=89	=89	=89	=89	=89	=89
4A-\	.	8cc\L	.	8ee-\L	.	8cc\	mi-	8ee-\	mi-
.	.	8b-\J	.	8dd-\J	.	8b-\	-se-	8dd-\	-se-
4D-\	.	4b-\	.	4dd-\	.	4b-\	-re-	4dd-\	-re-
4Dn\	.	4a-\	.	4cc\	.	4a-\	-re	4cc\	-re
=90	=90	=90	=90	=90	=90	=90	=90	=90	=90
4E-\	.	4a-/	.	4cc\	.	4a-\	no-	4cc\	no-
4EE-/	.	4g/	.	4b-\	.	4g\	-bis	4b-\	-bis
4r	.	4e-/ 4G/	.	4e-/	.	4r	.	4r	.
=91	=91	=91	=91	=91	=91	=91	=91	=91	=91
!	!	!	!	!	!	!LO:TX:t=4.	!	!LO:TX:t=4.	!
4E-\	.	4.b-\	.	4.dd-\	.	2.r	.	2.r	.
4G\	.	.	.	.	.	.	.	.	.
.	.	8g/	.	8b-\	.	.	.	.	.
4E-\	.	8b-/L	.	8dd-\L	.	.	.	.	.
.	.	8g/J	.	8b-\J	.	.	.	.	.
=92	=92	=92	=92	=92	=92	=92	=92	=92	=92
4A-\	.	8a-/L	.	8cc\L	.	2.r	.	2.r	.
.	.	8b-/J	.	8dd-\J	.	.	.	.	.
4E-\	.	4.cc\	.	4.ee-\	.	.	.	.	.
4AA-/	.	.	.	.	.	.	.	.	.
.	.	8a-\	.	8cc\	.	.	.	.	.
=93	=93	=93	=93	=93	=93	=93	=93	=93	=93
4AA-/	.	(8a-\L	.	8cc'\L	.	2.r	.	2.r	.
.	.	8cc\	.	8ee-'\	.	.	.	.	.
4r	.	8dd-\	.	8ff'\	.	.	.	.	.
.	.	8cc\	.	8ee-'\	.	.	.	.	.
4r	.	8b-\	.	8dd-'\	.	.	.	.	.
.	.	8a-\J)	.	8cc'\J	.	.	.	.	.
=94	=94	=94	=94	=94	=94	=94	=94	=94	=94
4E-\	.	(8g/L	.	(8b-\L	.	2.r	.	2.r	.
.	.	8a-/	.	8cc\	.	.	.	.	.
4E-\	.	8g/	.	8b-\	.	.	.	.	.
.	.	8a-/J)	.	8cc\J)	.	.	.	.	.
4E-\	.	4g/	.	4b-\	.	.	.	.	.
=95	=95	=95	=95	=95	=95	=95	=95	=95	=95
4A-\	.	(8cc\L	.	(8ee-\L	.	8cc\	Qui	8ee-\	Qui
.	.	8b-\	.	8dd-\	.	8b-\	.	8dd-\	.
4AA-/	.	8b-\	.	8dd-\	.	8b-\	paſ-	8dd-\	paſ-
.	.	8a-\J)	.	8cc\J)	.	8a-\	.	8cc\	-sus
4r	.	4a-/	.	4cc\	.	4a-\	-sus	4cc\	eſt
=96	=96	=96	=96	=96	=96	=96	=96	=96	=96
4D-\	.	(8ff\L	.	(8aa-\L	.	8ff\	eſt	8aa-\L	pro
.	.	8dd-\	.	8ff\	.	8dd-\	pro	8ff\J	.
4r	.	8dd-\	.	8ff\	.	8dd-\L	no-	8ff\L	no-
.	.	8cc\J)	.	8ee-\J)	.	8cc\J	.	8ee-\J	.
4r	.	4cc\	.	4ee-\	.	4cc\	-bis	4ee-\	-bis
=97	=97	=97	=97	=97	=97	=97	=97	=97	=97
4E-\	.	(8b-/L	.	(8dd-\L	.	8b-\L	Qui	8dd-\L	Qui
.	.	8a-/	.	8cc\	.	8a-\J	.	8cc\J	.
!	!	!	!	!	!	!LO:LB:g=original	!	!	!
4r	.	8a-/	.	8cc\	.	8a-\L	paſ-	8cc\L	paſ-
.	.	8g/J)	.	8b-\J)	.	8g\J	.	8b-\J	.
4r	.	4g/	.	4b-\	.	4g\	-sus	4b-\	-sus
!	!	!LO:LB:g=original	!	!	!	!	!	!	!
=98	=98	=98	=98	=98	=98	=98	=98	=98	=98
4A-\	.	(8cc\L	.	(8ee-\L	.	8cc\	est	8ee-\L	eſt
.	.	8b-\	.	8dd-\	.	8b-\	pro	8dd-\J	pro
4AA-/	.	8b-\	.	8dd-\	.	8b-\L	no-	8dd-\L	no-
.	.	8a-\J)	.	8cc\J)	.	8a-\J	.	8cc\J	.
4r	.	4a-/	.	4cc\	.	4a-\	-bis	4cc\	-bis:
=99	=99	=99	=99	=99	=99	=99	=99	=99	=99
4A-\	.	4.a-/	.	4.cc\	.	4.a-\	Je-	4.cc\	Je-
4G\	.	.	.	.	.	.	.	.	.
.	.	8cc\	.	8ee-\	.	8cc\	-su	8ee-\	-su
4E-\	.	8b-\L	.	8dd-\L	.	8b-\	chris-	8dd-\	chris-
.	.	8g\J	.	8b-\J	.	8g\	-te	8b-\	-te
!	!	!	!	!LO:LB:g=original	!	!	!	!	!
=100	=100	=100	=100	=100	=100	=100	=100	=100	=100
*	*	*	*	*	*	*	*ij	*	*
4A-\	.	4.a-/	.	4.cc\	.	4.a-\	Je-	4.cc\	Je-
4G\	.	.	.	.	.	.	.	.	.
.	.	8cc\	.	8ee-\	.	8cc\	-su	8ee-\	-su
!	!	!	!	!	!	!	!	!LO:LB:g=original	!
4E-\	.	8b-\L	.	8dd-\L	.	8b-\	chris-	8dd-\	chris-
.	.	8g\J	.	8b-\J	.	8g\	-te	8b-\	-te
*	*	*	*	*	*	*	*Xij	*	*
=101	=101	=101	=101	=101	=101	=101	=101	=101	=101
4E-\	.	8cc\L	.	8ee-\L	.	8cc\	mi-	8ee-\	mi-
.	.	8b-\J	.	8dd-\J	.	8b-\	-se-	8dd-\	-se-
4E-\	.	4b-\	.	4dd-\	.	4b-\	-re-	4dd-\	-re-
4E-\	.	4a-\	.	4cc\	.	4a-\	-re	4cc\	-re
=102	=102	=102	=102	=102	=102	=102	=102	=102	=102
4E-\	.	4a-/	.	4cc\	.	4a-\	no-	4cc\	no-
4EE-/	.	2g;/	.	2b-;\	.	2g;\	-bis	2b-;\	-bis
4r;	.	.	.	.	.	.	.	.	.
=103	=103	=103	=103	=103	=103	=103	=103	=103	=103
!	!	!	!	!	!	!LO:TX:t=6	!	!LO:TX:t=6	!
4C/	.	8c/L	.	8e-/L	.	2.r	.	2.r	.
.	.	8c/J	.	8a-/J	.	.	.	.	.
4C/	.	4.c/	.	4.a-/	.	.	.	.	.
4C/	.	.	.	.	.	.	.	.	.
.	.	8e-/	.	8g-X/	.	.	.	.	.
!LO:LB:g=original	!	!	!	!	!	!	!	!	!
=104	=104	=104	=104	=104	=104	=104	=104	=104	=104
!	!	!	!	!LO:SIC:v:s=8g-	!	!	!	!	!
4D-X\	.	8e-/L	.	8g/L	.	2.r	.	2.r	.
.	.	8d-/J	.	8f/J	.	.	.	.	.
4D-\	.	2d-/	.	2f/	.	.	.	.	.
4r	.	.	.	.	.	.	.	.	.
=105	=105	=105	=105	=105	=105	=105	=105	=105	=105
4Dn\	.	8dn/L	.	8f/L	.	2.r	.	2.r	.
.	.	8g/J	.	8b-/J	.	.	.	.	.
4D\	.	4.g/	.	4.b-/	.	.	.	.	.
4D\	.	.	.	.	.	.	.	.	.
.	.	8f/	.	8a-/	.	.	.	.	.
=106	=106	=106	=106	=106	=106	=106	=106	=106	=106
4E-\	.	8f/L	.	8a-/L	.	2.r	.	2.r	.
.	.	8e-/J	.	8gn/J	.	.	.	.	.
4BB-/	.	2e-/	.	2g/	.	.	.	.	.
4EE-/	.	.	.	.	.	.	.	.	.
=107	=107	=107	=107	=107	=107	=107	=107	=107	=107
4E-\	.	8g/L	.	8b-\L	.	2.r	.	2.r	.
.	.	8b-/	.	8dd-\	.	.	.	.	.
4G\	.	8a-/	.	8cc\	.	.	.	.	.
.	.	8cc/J	.	8ee-\J	.	.	.	.	.
4E-\	.	8B-/L	.	8g/L	.	.	.	.	.
.	.	8d-X/J	.	8b-/J	.	.	.	.	.
=108	=108	=108	=108	=108	=108	=108	=108	=108	=108
4A-\	.	8d-/L	.	8b-/L	.	2.r	.	2.r	.
.	.	8c/J	.	8a-/J	.	.	.	.	.
4E-\	.	2c/	.	2a-/	.	.	.	.	.
4AA-/	.	.	.	.	.	.	.	.	.
=109	=109	=109	=109	=109	=109	=109	=109	=109	=109
4AA-/	.	4cc\	.	4ee-\	.	4cc\	Qui	4ee-\	Qui
4r	.	8cc\L	.	8ee-\L	.	8cc\L	paſ-	8ee-\	paſ-
.	.	8b-\J	.	8dd-\J	.	8b-\J	.	8dd-\	-sus
4r	.	4a-/	.	4cc\	.	4a-\	-sus	4cc\	eſt
=110	=110	=110	=110	=110	=110	=110	=110	=110	=110
4AA-/	.	(8a-/L	.	(8cc\L	.	8a-\L	eſt	8cc\L	pro
.	.	8b-/	.	8dd-\	.	8b-\J	pro	8dd-\J	.
4r	.	8b-/	.	8dd-\	.	8b-\L	no-	8dd-\L	no-
.	.	8cc/J)	.	8ee-\J)	.	8cc\J	.	8ee-\J	.
4r	.	4cc\	.	4ee-\	.	4cc\	-bis	4ee-\	-bis.
!	!	!	!	!	!	!LO:LB:g=original	!	!	!
=111	=111	=111	=111	=111	=111	=111	=111	=111	=111
4E-\	.	4b-\	.	4dd-\	.	4b-\	Qui	4dd-\	Qui
4r	.	8b-\L	.	8dd-\L	.	8b-\	paſ-	8dd-\	paſ-
.	.	8a-\J	.	8cc\J	.	8a-\	-sus	8cc\	-sus
4r	.	4g/	.	4b-\	.	4g\	eſt	4b-\	eſt
=112	=112	=112	=112	=112	=112	=112	=112	=112	=112
4E-\	.	(8g/L	.	(8b-\L	.	8g\L	pro	8b-\L	pro
.	.	8a-/	.	8cc\	.	8a-\J	.	8cc\J	.
4r	.	8a-/	.	8cc\	.	8a-\L	no-	8cc\L	no-
.	.	8b-/J)	.	8dd-\J)	.	8b-\J	.	8dd-\J	.
4r	.	4b-/	.	4dd-\	.	4b-\	-bis	4dd-\	-bis
=113	=113	=113	=113	=113|:	=113	=113	=113	=113	=113
4AA-/	.	4.a-/	.	4.cc\	.	4.a-\	Je-	4.cc\	Je-
4C/	.	.	.	.	.	.	.	.	.
.	.	8b-/	.	8dd-\	.	8b-\	-su	8dd-\	-su
4E-/	.	8a-/L	.	8cc\L	.	8a-\	chris-	8cc\	chris-
.	.	8b-/J	.	8dd-\J	.	8b-\	-te	8dd-\	-te
!	!	!	!	!	!	!	!	!LO:LB:g=original	!
=114	=114	=114	=114	=114:|	=114	=114	=114	=114	=114
!	!	!	!	!LO:TX:t=P:problem=takt zapisany powtórką	!	!	!	!	!
4AA-/	.	4.a-/	.	4.cc\	.	4.a-\	Je-	4.cc\	Je-
4C/	.	.	.	.	.	.	.	.	.
.	.	8b-/	.	8dd-\	.	8b-\	-su	8dd-\	-su
4E-/	.	8a-/L	.	8cc\L	.	8a-\	chris-	8cc\	chris-
.	.	8b-/J	.	8dd-\J	.	8b-\	-te	8dd-\	-te
=115	=115	=115	=115	=115	=115	=115	=115	=115	=115
4A-'\	.	8a-/L	.	8cc\L	.	8a-\	mi-	8cc\	mi-
.	.	8a-/J	.	8cc\J	.	8a-\	-se-	8cc\	-se-
4D-X'\	.	4b-/	.	4dd-\	.	4b-\	-re-	4dd-\	-re-
4E-'\	.	4g/	.	4b-\	.	4g\	-re	4b-\	-re
=116	=116	=116	=116	=116	=116	=116	=116	=116	=116
4E-\	.	4b-/	.	4dd-\	.	4b-\	no-	4dd-\	no-
4AA-/	.	4a-/	.	4cc\	.	4a-\	-bis	4cc\	-bis
4r;	.	4r	.	4r	.	4r;	.	4r;	.
==	==	==	==	==	==	==	==	==	==
*-	*-	*-	*-	*-	*-	*-	*-	*-	*-
!!!RDF**dynam: p = p.
!!!RDF**dynam: f = for.
!!!RDF**dynam: pp = pp.
!!!system-decoration: [(s1,s2)][(s3,s4)]s5
!!!ENC: Kamil Watkowski
!!!END: 2020-12-07
!!!ENC: Urszula Świątek
!!!END: 2022-03-27
!!!YEC: Copyright 2022 Narodowy Instytut Fryderyka Chopina (https://polishscores.org)
!!!YEM: License CC-BY-4.0 (https://creativecommons.org/licenses/by/4.0)
